packages/core/src/svgs/tokens/mono/IPAD.svg

<svg width="24" height="24" viewBox="0 0 24 24" fill="none" xmlns="http://www.w3.org/2000/svg">
<path d="M2 12.0001L3.57896 10.4211L5.1579 12.0001L3.57896 13.579L2 12.0001Z" fill="white"/>
<path d="M4.10522 14.1053L5.68417 12.5264L9.36838 16.2106L7.78944 17.7895L4.10522 14.1053Z" fill="white"/>
<path d="M8.31543 14.1053L9.89437 12.5264L11.4733 14.1053L9.89437 15.6842L8.31543 14.1053Z" fill="white"/>
<path d="M10.4214 12.0001L12.0003 10.4211L13.5792 12.0001L12.0003 13.579L10.4214 12.0001Z" fill="white"/>
<path d="M12.5266 9.89481L14.1055 8.31592L15.6845 9.89481L14.1055 11.4739L12.5266 9.89481Z" fill="white"/>
<path d="M14.6318 7.7894L16.2109 6.21045L19.8951 9.89461L18.316 11.4737L14.6318 7.7894Z" fill="white"/>
<path d="M12.5266 14.1053L14.1055 12.5264L15.6845 14.1053L14.1055 15.6842L12.5266 14.1053Z" fill="white"/>
<path d="M14.6318 16.2106L18.316 12.5264L19.8951 14.1053L16.2109 17.7895L14.6318 16.2106Z" fill="white"/>
<path d="M18.842 12.0001L20.421 10.4211L21.9999 12.0001L20.421 13.579L18.842 12.0001Z" fill="white"/>
<path d="M4.10522 9.89461L7.78944 6.21045L9.36838 7.7894L5.68417 11.4737L4.10522 9.89461Z" fill="white"/>
<path d="M8.31543 9.89481L9.89437 8.31592L11.4733 9.89481L9.89437 11.4739L8.31543 9.89481Z" fill="white"/>
</svg>

<svg xmlns="http://www.w3.org/2000/svg" width="24" height="24" fill="none" viewBox="0 0 24 24">
    <path fill="#fff" d="m2 12 1.579-1.579 1.579 1.58-1.579 1.578zm2.105 2.105 1.58-1.579 3.683 3.685L7.79 17.79zm4.21 0 1.58-1.579 1.578 1.58-1.579 1.578zM10.421 12l1.58-1.579 1.578 1.58L12 13.578zm2.106-2.105 1.579-1.58 1.579 1.58-1.58 1.579zm2.105-2.105 1.579-1.58 3.684 3.685-1.579 1.579zm-2.105 6.315 1.579-1.579 1.579 1.58-1.58 1.578zm2.105 2.105 3.684-3.684 1.58 1.58-3.685 3.684zm4.21-4.21 1.579-1.579L22 12.001l-1.579 1.578zM4.105 9.895 7.79 6.21l1.58 1.58-3.685 3.684zm4.21 0 1.58-1.58 1.578 1.58-1.579 1.579z"/>
</svg>
